X: 3884
T: Black Silk Slip, The
R: polka
M: 2/4
K: Dmajor
|Ad fc/e/|fd BA|Ad ec/e/|fe e2|
Ad fc/e/|fd BA|Af Af|Bc d2:|
|:A/f/A/f/ Ad|ce fd|B/e/B/e/ Bc|dB A2|
A/f/A/f/ Ad|ce fd|Bc d>e|fd d2:|

